src/Assets/logo.svg

<?xml version="1.0" encoding="UTF-8" standalone="no" ?>
<!DOCTYPE svg PUBLIC "-//W3C//DTD SVG 1.1//EN" "http://www.w3.org/Graphics/SVG/1.1/DTD/svg11.dtd">
<svg xmlns="http://www.w3.org/2000/svg" xmlns:xlink="http://www.w3.org/1999/xlink" version="1.1" width="326" height="224" viewBox="0 0 326 224" xml:space="preserve">
<desc>Created with Fabric.js 3.6.3</desc>
<defs>
</defs>
<g transform="matrix(0.11 0 0 -0.11 174.83 43.58)" id="q0lyjeEYrrsuuwdK5yW-5"  >
<path style="stroke: none; stroke-width: 1; stroke-dasharray: none; stroke-linecap: butt; stroke-dashoffset: 0; stroke-linejoin: miter; stroke-miterlimit: 4; fill: rgb(4,6,6); fill-rule: nonzero; opacity: 1;" vector-effect="non-scaling-stroke"  transform=" translate(-2604.19, -3128.82)" d="M 3981.88 2737.15 L 1226.49 2737.15 L 1226.49 3520.4900000000002 L 3773.51 3520.4900000000002 L 3773.51 2960.5 L 3723.92 2960.5 L 3723.92 3470.9 L 1276.08 3470.9 L 1276.08 2786.7400000000002 L 3981.88 2786.7400000000002 L 3981.88 2737.15" stroke-linecap="round" />
</g>
<g transform="matrix(0.11 0 0 -0.11 150.94 139.87)" id="ZYdCT0x6-A2mkT2sSOvXR"  >
<path style="stroke: none; stroke-width: 1; stroke-dasharray: none; stroke-linecap: butt; stroke-dashoffset: 0; stroke-linejoin: miter; stroke-miterlimit: 4; fill: rgb(4,6,6); fill-rule: nonzero; opacity: 1;" vector-effect="non-scaling-stroke"  transform=" translate(-2385.63, -2248.17)" d="M 1067.71 1975.43 L 1018.12 1975.43 L 1018.12 2272.98 L 1042.94 2272.98 C 1156.66 2272.98 1213.3400000000001 2329.66 1273.3700000000001 2389.67 C 1337.91 2454.2000000000003 1404.64 2520.91 1538.89 2520.91 C 1673.15 2520.91 1739.8700000000001 2454.2 1804.4 2389.67 C 1864.43 2329.64 1921.14 2272.9500000000003 2034.8500000000001 2272.9500000000003 C 2148.54 2272.9500000000003 2205.2200000000003 2329.6400000000003 2265.25 2389.67 C 2329.76 2454.2000000000003 2396.49 2520.91 2530.74 2520.91 C 2664.99 2520.91 2731.7 2454.2 2796.2 2389.67 C 2856.23 2329.64 2912.9199999999996 2272.9500000000003 3026.6099999999997 2272.9500000000003 C 3140.2899999999995 2272.9500000000003 3196.9799999999996 2329.6400000000003 3257.0099999999998 2389.67 C 3321.5099999999998 2454.2000000000003 3388.25 2520.91 3522.5 2520.91 C 3627.59 2520.91 3690.91 2478.0299999999997 3734.36 2440.6299999999997 L 3753.1400000000003 2424.4599999999996 L 3720.7900000000004 2386.8799999999997 L 3702.0000000000005 2403.0599999999995 C 3662.7700000000004 2436.8199999999997 3610.7600000000007 2471.3199999999997 3522.5000000000005 2471.3199999999997 C 3408.7900000000004 2471.3199999999997 3352.1000000000004 2414.6299999999997 3292.0700000000006 2354.6 C 3227.5700000000006 2290.0699999999997 3160.850000000001 2223.3599999999997 3026.6100000000006 2223.3599999999997 C 2892.3600000000006 2223.3599999999997 2825.6500000000005 2290.0699999999997 2761.1400000000003 2354.5999999999995 C 2701.11 2414.6299999999997 2644.4200000000005 2471.3199999999993 2530.7400000000002 2471.3199999999993 C 2417.03 2471.3199999999993 2360.34 2414.629999999999 2300.3100000000004 2354.5999999999995 C 2235.8100000000004 2290.0699999999993 2169.1000000000004 2223.3599999999997 2034.8500000000004 2223.3599999999997 C 1900.5800000000004 2223.3599999999997 1833.8700000000003 2290.0699999999997 1769.3400000000004 2354.5999999999995 C 1709.3100000000004 2414.6299999999997 1652.6000000000004 2471.3199999999993 1538.8900000000003 2471.3199999999993 C 1425.1700000000003 2471.3199999999993 1368.4600000000003 2414.629999999999 1308.4300000000003 2354.5999999999995 C 1248.0200000000002 2294.1899999999996 1185.6400000000003 2231.8599999999997 1067.7100000000003 2224.1799999999994 L 1067.7100000000003 1975.4299999999994" stroke-linecap="round" />
</g>
<g transform="matrix(0.11 0 0 -0.11 152.05 194.08)" id="WDtWkw7TdeJXaqiBhvYbO"  >
<path style="stroke: none; stroke-width: 1; stroke-dasharray: none; stroke-linecap: butt; stroke-dashoffset: 0; stroke-linejoin: miter; stroke-miterlimit: 4; fill: rgb(4,6,6); fill-rule: nonzero; opacity: 1;" vector-effect="non-scaling-stroke"  transform=" translate(-2395.82, -1752.26)" d="M 3773.51 1479.51 L 1226.49 1479.51 L 1226.49 1777.03 L 1276.08 1777.03 L 1276.08 1529.1 L 3723.92 1529.1 L 3723.92 1975.4299999999998 L 1018.1199999999999 1975.4299999999998 L 1018.1199999999999 2025.0199999999998 L 3773.5099999999998 2025.0199999999998 L 3773.5099999999998 1479.5099999999998" stroke-linecap="round" />
</g>
<g transform="matrix(0.11 0 0 -0.11 107.78 53.08)" id="qu_ZiVUNzErHCiBp4pber"  >
<path style="stroke: none; stroke-width: 1; stroke-dasharray: none; stroke-linecap: butt; stroke-dashoffset: 0; stroke-linejoin: miter; stroke-miterlimit: 4; fill: rgb(4,6,6); fill-rule: nonzero; opacity: 1;" vector-effect="non-scaling-stroke"  transform=" translate(-1990.89, -3041.89)" d="M 1962.32 3013.32 L 2019.47 3013.32 L 2019.47 3070.46 L 1962.32 3070.46 z M 2069.06 2963.7200000000003 L 1912.73 2963.7200000000003 L 1912.73 3120.05 L 2069.06 3120.05 L 2069.06 2963.7200000000003" stroke-linecap="round" />
</g>
<g transform="matrix(0.11 0 0 -0.11 135.61 30.72)" id="gEIyfdBp4fO4YIDpMEmyo"  >
<path style="stroke: none; stroke-width: 1; stroke-dasharray: none; stroke-linecap: butt; stroke-dashoffset: 0; stroke-linejoin: miter; stroke-miterlimit: 4; fill: rgb(4,6,6); fill-rule: nonzero; opacity: 1;" vector-effect="non-scaling-stroke"  transform=" translate(-2245.44, -3246.45)" d="M 2216.87 3217.88 L 2274.02 3217.88 L 2274.02 3275.02 L 2216.87 3275.02 z M 2323.6099999999997 3168.29 L 2167.2799999999997 3168.29 L 2167.2799999999997 3324.62 L 2323.6099999999997 3324.62 L 2323.6099999999997 3168.29" stroke-linecap="round" />
</g>
<g transform="matrix(0.11 0 0 -0.11 219.1 53.08)" id="lbSA0qfGK2xjreJHVVnfA"  >
<path style="stroke: none; stroke-width: 1; stroke-dasharray: none; stroke-linecap: butt; stroke-dashoffset: 0; stroke-linejoin: miter; stroke-miterlimit: 4; fill: rgb(4,6,6); fill-rule: nonzero; opacity: 1;" vector-effect="non-scaling-stroke"  transform=" translate(-3009.09, -3041.89)" d="M 2980.53 3013.32 L 3037.65 3013.32 L 3037.65 3070.46 L 2980.53 3070.46 z M 3087.2400000000002 2963.7200000000003 L 2930.94 2963.7200000000003 L 2930.94 3120.05 L 3087.2400000000002 3120.05 L 3087.2400000000002 2963.7200000000003" stroke-linecap="round" />
</g>
<g transform="matrix(0.11 0 0 -0.11 190.86 31.13)" id="v33mnwKdwgtWXC58JGr9M"  >
<path style="stroke: none; stroke-width: 1; stroke-dasharray: none; stroke-linecap: butt; stroke-dashoffset: 0; stroke-linejoin: miter; stroke-miterlimit: 4; fill: rgb(4,6,6); fill-rule: nonzero; opacity: 1;" vector-effect="non-scaling-stroke"  transform=" translate(-2750.77, -3242.69)" d="M 2722.21 3214.13 L 2779.33 3214.13 L 2779.33 3271.25 L 2722.21 3271.25 z M 2828.92 3164.54 L 2672.62 3164.54 L 2672.62 3320.84 L 2828.92 3320.84 L 2828.92 3164.54" stroke-linecap="round" />
</g>
<g transform="matrix(0.11 0 0 -0.11 163.44 53.08)" id="8"  >
<path style="stroke: none; stroke-width: 1; stroke-dasharray: none; stroke-linecap: butt; stroke-dashoffset: 0; stroke-linejoin: miter; stroke-miterlimit: 4; fill: rgb(4,6,6); fill-rule: nonzero; opacity: 1;" vector-effect="non-scaling-stroke"  transform=" translate(-2499.99, -3041.89)" d="M 2471.42 3013.32 L 2528.56 3013.32 L 2528.56 3070.46 L 2471.42 3070.46 z M 2578.15 2963.7200000000003 L 2421.82 2963.7200000000003 L 2421.82 3120.05 L 2578.15 3120.05 L 2578.15 2963.7200000000003" stroke-linecap="round" />
</g>
</svg>

<svg height="224" viewBox="0 0 326 224" width="326" xmlns="http://www.w3.org/2000/svg"><g fill="#040606"><path d="m3981.88 2737.15h-2755.39v783.34h2547.02v-559.99h-49.59v510.4h-2447.84v-684.16h2705.8z" transform="matrix(.11 0 0 -.11 -111.6309 387.7502)"/><path d="m1067.71 1975.43h-49.59v297.55h24.82c113.72 0 170.4 56.68 230.43 116.69 64.54 64.53 131.27 131.24 265.52 131.24 134.26 0 200.98-66.71 265.51-131.24 60.03-60.03 116.74-116.72 230.45-116.72 113.69 0 170.37 56.69 230.4 116.72 64.51 64.53 131.24 131.24 265.49 131.24s200.96-66.71 265.46-131.24c60.03-60.03 116.72-116.72 230.41-116.72 113.68 0 170.37 56.69 230.4 116.72 64.5 64.53 131.24 131.24 265.49 131.24 105.09 0 168.41-42.88 211.86-80.28l18.78-16.17-32.35-37.58-18.79 16.18c-39.23 33.76-91.24 68.26-179.5 68.26-113.71 0-170.4-56.69-230.43-116.72-64.5-64.53-131.22-131.24-265.46-131.24-134.25 0-200.96 66.71-265.47 131.24-60.03 60.03-116.72 116.72-230.4 116.72-113.71 0-170.4-56.69-230.43-116.72-64.5-64.53-131.21-131.24-265.46-131.24-134.27 0-200.98 66.71-265.51 131.24-60.03 60.03-116.74 116.72-230.45 116.72-113.72 0-170.43-56.69-230.46-116.72-60.41-60.41-122.79-122.74-240.72-130.42z" transform="matrix(.11 0 0 -.11 -111.4793 387.1687)"/><path d="m3773.51 1479.51h-2547.02v297.52h49.59v-247.93h2447.84v446.33h-2705.8v49.59h2755.39z" transform="matrix(.11 0 0 -.11 -111.4902 386.8286)"/><path d="m1962.32 3013.32h57.15v57.14h-57.15zm106.74-49.6h-156.33v156.33h156.33z" transform="matrix(.11 0 0 -.11 -111.2179 387.6879)"/><path d="m2216.87 3217.88h57.15v57.14h-57.15zm106.74-49.59h-156.33v156.33h156.33z" transform="matrix(.11 0 0 -.11 -111.3884 387.8295)"/><path d="m2980.53 3013.32h57.12v57.14h-57.12zm106.71-49.6h-156.3v156.33h156.3z" transform="matrix(.11 0 0 -.11 -111.8999 387.6879)"/><path d="m2722.21 3214.13h57.12v57.12h-57.12zm106.71-49.59h-156.3v156.3h156.3z" transform="matrix(.11 0 0 -.11 -111.7247 387.8259)"/><path d="m2471.42 3013.32h57.14v57.14h-57.14zm106.73-49.6h-156.33v156.33h156.33z" transform="matrix(.11 0 0 -.11 -111.5589 387.6879)"/></g></svg>
